gain.svg

<svg width="96" height="128" viewBox="0 0 6 8" xmlns="http://www.w3.org/2000/svg"><path d="m1 0 1 1-1 1-1-1m5-1 1 1-1 1-1-1m-1 1 1 1-1 1-1-1m-1 1 1 1-1 1-1-1m5-1 1 1-1 1-1-1m-1 1 1 1-1 1-1-1"/></svg>

<svg width="96" height="128" viewBox="0 0 6 8" xmlns="http://www.w3.org/2000/svg"><path d="M1 0 2 1 1 2 0 1M5 0 6 1 5 2 4 1M3 2 4 3 3 4 2 3M1 4 2 5 1 6 0 5M5 4 6 5 5 6 4 5M3 6 4 7 3 8 2 7"/></svg>
